static/img/kroki/c83da6681924fa36a3c57e0b49d4adf9.svg

<?xml version="1.0" encoding="us-ascii" standalone="no"?><svg xmlns="http://www.w3.org/2000/svg" xmlns:xlink="http://www.w3.org/1999/xlink" contentStyleType="text/css" height="374px" preserveAspectRatio="none" style="width:275px;height:374px;" version="1.1" viewBox="0 0 275 374" width="275px" zoomAndPan="magnify"><defs/><g><!--class kubernetes_resource--><g id="elem_kubernetes_resource"><rect codeLine="23" fill="#3D176E" height="39.7891" id="kubernetes_resource" rx="2.5" ry="2.5" style="stroke:#000D19;stroke-width:0.5;" width="216" x="29.5" y="167.79"/><ellipse cx="44.5" cy="187.6845" fill="#ADD1B2" rx="11" ry="11" style="stroke:#181818;stroke-width:1.0;"/><path d="M47.4688,193.3252 Q46.8906,193.622 46.25,193.7627 Q45.6094,193.9189 44.9063,193.9189 Q42.4063,193.9189 41.0781,192.2783 Q39.7656,190.622 39.7656,187.497 Q39.7656,184.372 41.0781,182.7158 Q42.4063,181.0595 44.9063,181.0595 Q45.6094,181.0595 46.25,181.2158 Q46.9063,181.372 47.4688,181.6689 L47.4688,184.3877 Q46.8438,183.8095 46.25,183.5439 Q45.6563,183.2627 45.0313,183.2627 Q43.6875,183.2627 43,184.3408 Q42.3125,185.4033 42.3125,187.497 Q42.3125,189.5908 43,190.6689 Q43.6875,191.7314 45.0313,191.7314 Q45.6563,191.7314 46.25,191.4658 Q46.8438,191.1845 47.4688,190.6064 L47.4688,193.3252 Z " fill="#000000"/><text fill="#D9B8FF" font-family="Helvetica" font-size="17" lengthAdjust="spacing" textLength="174" x="63.5" y="193.5698">kubernetes_resource</text></g><!--class kubernetes_runtime_class--><g id="elem_kubernetes_runtime_class"><rect codeLine="26" fill="#3D176E" height="39.7891" id="kubernetes_runtime_class" rx="2.5" ry="2.5" style="stroke:#000D19;stroke-width:0.5;" width="261" x="7" y="328.58"/><ellipse cx="22" cy="348.4745" fill="#ADD1B2" rx="11" ry="11" style="stroke:#181818;stroke-width:1.0;"/><path d="M24.9688,354.1152 Q24.3906,354.412 23.75,354.5527 Q23.1094,354.7089 22.4063,354.7089 Q19.9063,354.7089 18.5781,353.0683 Q17.2656,351.412 17.2656,348.287 Q17.2656,345.162 18.5781,343.5058 Q19.9063,341.8495 22.4063,341.8495 Q23.1094,341.8495 23.75,342.0058 Q24.4063,342.162 24.9688,342.4589 L24.9688,345.1777 Q24.3438,344.5995 23.75,344.3339 Q23.1563,344.0527 22.5313,344.0527 Q21.1875,344.0527 20.5,345.1308 Q19.8125,346.1933 19.8125,348.287 Q19.8125,350.3808 20.5,351.4589 Q21.1875,352.5214 22.5313,352.5214 Q23.1563,352.5214 23.75,352.2558 Q24.3438,351.9745 24.9688,351.3964 L24.9688,354.1152 Z " fill="#000000"/><text fill="#D9B8FF" font-family="Helvetica" font-size="17" lengthAdjust="spacing" textLength="219" x="41" y="354.3598">kubernetes_runtime_class</text></g><!--class resource--><g id="elem_resource"><rect codeLine="29" fill="#3D176E" height="39.7891" id="resource" rx="2.5" ry="2.5" style="stroke:#000D19;stroke-width:0.5;" width="113" x="81" y="7"/><ellipse cx="96" cy="26.8945" fill="#ADD1B2" rx="11" ry="11" style="stroke:#181818;stroke-width:1.0;"/><path d="M98.9688,32.5352 Q98.3906,32.832 97.75,32.9727 Q97.1094,33.1289 96.4063,33.1289 Q93.9063,33.1289 92.5781,31.4883 Q91.2656,29.832 91.2656,26.707 Q91.2656,23.582 92.5781,21.9258 Q93.9063,20.2695 96.4063,20.2695 Q97.1094,20.2695 97.75,20.4258 Q98.4063,20.582 98.9688,20.8789 L98.9688,23.5977 Q98.3438,23.0195 97.75,22.7539 Q97.1563,22.4727 96.5313,22.4727 Q95.1875,22.4727 94.5,23.5508 Q93.8125,24.6133 93.8125,26.707 Q93.8125,28.8008 94.5,29.8789 Q95.1875,30.9414 96.5313,30.9414 Q97.1563,30.9414 97.75,30.6758 Q98.3438,30.3945 98.9688,29.8164 L98.9688,32.5352 Z " fill="#000000"/><text fill="#D9B8FF" font-family="Helvetica" font-size="17" lengthAdjust="spacing" textLength="71" x="115" y="32.7798">resource</text></g><!--reverse link resource to kubernetes_resource--><g id="link_resource_kubernetes_resource"><path codeLine="32" d="M137.5,65.05 C137.5,95.57 137.5,136.9 137.5,167.46 " fill="none" id="resource-backto-kubernetes_resource" style="stroke:#FFAF37;stroke-width:2.0;"/><polygon fill="none" points="137.5,47.05,131.5,65.05,143.5,65.05,137.5,47.05" style="stroke:#FFAF37;stroke-width:2.0;"/></g><!--reverse link kubernetes_resource to kubernetes_runtime_class--><g id="link_kubernetes_resource_kubernetes_runtime_class"><path codeLine="33" d="M137.5,225.84 C137.5,256.36 137.5,297.69 137.5,328.25 " fill="none" id="kubernetes_resource-backto-kubernetes_runtime_class" style="stroke:#FFAF37;stroke-width:2.0;"/><polygon fill="none" points="137.5,207.84,131.5,225.84,143.5,225.84,137.5,207.84" style="stroke:#FFAF37;stroke-width:2.0;"/></g><!--SRC=[XP9FRuCm3CNlV8f8FIF1geqYxT8XJTkbcjRTgq2S4a4Iv9XLtP_llZAsAWNQ7kFtYz-pvL89OA0RsZCDEWTqWQkKQJXopPQ8TfVPsYARISdbF1cAZzRGLM35DR0dgD-1LC67n5kfYig0S-p6anvuKMtHjaRqxGcvSGS937bKLdFdbaIeyfR02oFIV27ba1msdSr5dDp12BCe0F-GA8f4d0wHgrONvpuIQ_K1BFQNjh84evWZYr_gOigEy4AE1ltNpsPyuK8eisMtNksrpuG6yAI-BhcmkuwMl7Q-ZID0iBHl81jD1Ub2o6GIVZu71qMtEbQrXqirGE0s2CwsM03x38Bl2Rarf3HiUi5ZJlyTN_TVOHXEzG-cFCUqRnVy0000]--></g></svg>

<svg xmlns="http://www.w3.org/2000/svg" width="275" height="374" viewBox="0 0 275 374"><rect width="216" height="39.789" x="29.5" y="167.79" fill="#3D176E" rx="2.5" ry="2.5" style="stroke:#000d19;stroke-width:.5"/><circle cx="44.5" cy="187.685" r="11" fill="#ADD1B2" style="stroke:#181818;stroke-width:1"/><path d="M47.469 193.325q-.578.297-1.219.438-.64.156-1.344.156-2.5 0-3.828-1.64-1.312-1.657-1.312-4.782t1.312-4.781q1.328-1.656 3.828-1.656.703 0 1.344.156.656.156 1.219.453v2.719q-.625-.578-1.219-.844-.594-.281-1.219-.281-1.343 0-2.031 1.078-.687 1.062-.687 3.156t.687 3.172q.688 1.062 2.031 1.062.625 0 1.219-.265.594-.281 1.219-.86z"/><text x="63.5" y="193.57" fill="#D9B8FF" font-family="Helvetica" font-size="17" textLength="174">kubernetes_resource</text><rect width="261" height="39.789" x="7" y="328.58" fill="#3D176E" rx="2.5" ry="2.5" style="stroke:#000d19;stroke-width:.5"/><circle cx="22" cy="348.474" r="11" fill="#ADD1B2" style="stroke:#181818;stroke-width:1"/><path d="M24.969 354.115q-.578.297-1.219.438-.64.156-1.344.156-2.5 0-3.828-1.64-1.312-1.657-1.312-4.782t1.312-4.781q1.328-1.656 3.828-1.656.703 0 1.344.156.656.156 1.219.453v2.719q-.625-.579-1.219-.844-.594-.281-1.219-.281-1.343 0-2.031 1.078-.687 1.062-.687 3.156t.687 3.172q.688 1.062 2.031 1.062.625 0 1.219-.265.594-.281 1.219-.86z"/><text x="41" y="354.36" fill="#D9B8FF" font-family="Helvetica" font-size="17" textLength="219">kubernetes_runtime_class</text><rect width="113" height="39.789" x="81" y="7" fill="#3D176E" rx="2.5" ry="2.5" style="stroke:#000d19;stroke-width:.5"/><circle cx="96" cy="26.895" r="11" fill="#ADD1B2" style="stroke:#181818;stroke-width:1"/><path d="M98.969 32.535q-.578.297-1.219.438-.64.156-1.344.156-2.5 0-3.828-1.64-1.312-1.657-1.312-4.782t1.312-4.781q1.328-1.656 3.828-1.656.703 0 1.344.156.656.156 1.219.453v2.719q-.625-.578-1.219-.844-.594-.281-1.219-.281-1.344 0-2.031 1.078-.687 1.062-.687 3.156t.687 3.172q.688 1.062 2.031 1.062.625 0 1.219-.265.594-.281 1.219-.86z"/><text x="115" y="32.78" fill="#D9B8FF" font-family="Helvetica" font-size="17" textLength="71">resource</text><path fill="none" d="M137.5 65.05v102.41m0-120.41-6 18h12zm0 178.79v102.41m0-120.41-6 18h12z" style="stroke:#ffaf37;stroke-width:2"/></svg>
